X: 4488
T:Blackberry Blossom, The
R:reel
D:Mary Bergin: Feadoga Stain.
D:Planxty: The Well below the Valley
Z:id:hn-reel-117
M:C|
Z:posted by Bruce E. Baker 12/98
K:G
ge|:dBAd BG~G2|dBBA B2ge|dBAd BG~G2|1 eaag abge:|2 eaag agef||
~g3f gaba|~g3b agef|~g3f gbag|ea~a2 agef|
~g3f gaba|~g3b a2ga|agaf gfed|eaag abge||
